**harm	**harte	**silbe	**silbe	**rhyme	**timestamp	**phrase	**leadinstrument	**kern
*M4/4	*M4/4	*	*	*	*	*	*	*
*	*	*	*	*	*	*	*	*
*	*	*	*	*	*	*	*	*
*F:	*F:	*	*	*	*	*	*	*F:
*	*	*	*	*	*	*	*	*
*	*	*	*	*	*	*	*	*
1r;	N	.	.	.	0	.	r	1r;
=1	=1	=1	=1	=1	=1	=1	=1	=1
*>Letter>A	*>Letter>A	*>Letter>A	*>Letter>A	*>Letter>A	*>Letter>A	*>Letter>A	*>Letter>A	*>Letter>A
*>Label>Intro	*>Label>Intro	*>Label>Intro	*>Label>Intro	*>Label>Intro	*>Label>Intro	*>Label>Intro	*>Label>Intro	*>Label>Intro
1I	F:maj	.	.	.	0.592	newline	horns	1F 1a 1cc
=2	=2	=2	=2	=2	=2	=2	=2	=2
1IV	B-:maj	.	.	.	3.087	.	horns	1B- 1dd 1ff
=3	=3	=3	=3	=3	=3	=3	=3	=3
1ii	G:min	.	.	.	5.581	.	horns	1G 1b- 1dd
=4	=4	=4	=4	=4	=4	=4	=4	=4
1III7	A:7	.	.	.	8.076	.	horns	1A 1cc# 1ee 1gg
=5	=5	=5	=5	=5	=5	=5	=5	=5
*>Letter>B	*>Letter>B	*>Letter>B	*>Letter>B	*>Letter>B	*>Letter>B	*>Letter>B	*>Letter>B	*>Letter>B
*>Label>Verse	*>Label>Verse	*>Label>Verse	*>Label>Verse	*>Label>Verse	*>Label>Verse	*>Label>Verse	*>Label>Verse	*>Label>Verse
1I	F:maj	I	.	.	10.571	newline	voice	1F 1a 1cc
.	.	had	.	.	.	.	.	.
.	.	_	.	.	.	.	.	.
.	.	a	.	.	.	.	.	.
.	.	_	.	.	.	.	.	.
.	.	dream	.	.	.	.	.	.
=6	=6	=6	=6	=6	=6	=6	=6	=6
.	.	_	.	.	.	.	.	.
1IVc	B-:maj/5	_	.	.	13.054	.	voice	1b- 1dd 1F
.	.	_	.	.	.	.	.	.
.	.	_	.	.	.	.	.	.
.	.	.	.	.	.	.	.	.
=7	=7	=7	=7	=7	=7	=7	=7	=7
1iii	A:min	thin-	.	.	15.538	.	voice	1A 1cc 1ee
.	.	-king	.	.	.	.	.	.
.	.	that	.	.	.	.	.	.
.	.	a'-	.	.	.	.	.	.
.	.	-you	.	.	.	.	.	.
.	.	were	.	.	.	.	.	.
.	.	gone.	.	A	.	.	.	.
.	.	_	.	.	.	.	.	.
.	.	.	.	.	.	.	.	.
=8	=8	=8	=8	=8	=8	=8	=8	=8
1iii	A:min	lea-	.	.	18.022	.	voice	1A 1cc 1ee
.	.	-ving	.	.	.	.	.	.
.	.	me	.	.	.	.	.	.
.	.	on	.	.	.	.	.	.
.	.	my	.	.	.	.	.	.
.	.	own,	.	A	.	.	.	.
.	.	_	.	.	.	.	.	.
.	.	and	.	.	.	.	.	.
.	.	_	.	.	.	.	.	.
.	.	you	.	.	.	.	.	.
=9	=9	=9	=9	=9	=9	=9	=9	=9
.	.	_	.	.	.	.	.	.
1IV	B-:maj	_	.	.	20.505	.	voice	1B- 1dd 1ff
.	.	_	.	.	.	.	.	.
.	.	_	.	.	.	.	.	.
.	.	_	.	.	.	.	.	.
.	.	_	.	.	.	.	.	.
.	.	.	.	.	.	.	.	.
.	.	you	.	.	.	.	.	.
.	.	was	.	.	.	.	.	.
.	.	there	.	.	.	.	.	.
=10	=10	=10	=10	=10	=10	=10	=10	=10
1ii	G:min	_	.	.	22.989	.	voice	1G 1b- 1dd
.	.	.	.	.	.	.	.	.
.	.	.	.	.	.	.	.	.
=11	=11	=11	=11	=11	=11	=11	=11	=11
1III7	A:7	in	.	.	25.472	.	voice	1A 1cc# 1ee 1gg
.	.	some	.	.	.	.	.	.
.	.	o-	.	.	.	.	.	.
.	.	-ther's	.	.	.	.	.	.
.	.	_	.	.	.	.	.	.
.	.	arms	.	B	.	.	.	.
.	.	_	.	.	.	.	.	.
.	.	_	.	.	.	.	.	.
.	.	.	.	.	.	.	.	.
=12	=12	=12	=12	=12	=12	=12	=12	=12
1III7	A:7	gi-	.	.	27.956	.	voice	1A 1cc# 1ee 1gg
.	.	-ving	.	.	.	.	.	.
.	.	a-	.	.	.	.	.	.
.	.	-way	.	.	.	.	.	.
.	.	all	.	.	.	.	.	.
.	.	my	.	.	.	.	.	.
.	.	_	.	.	.	.	.	.
.	.	charms,	.	B	.	.	.	.
.	.	_	.	.	.	.	.	.
.	.	.	.	.	.	.	.	.
.	.	and	.	.	.	.	.	.
.	.	.	.	.	.	.	.	.
=13	=13	=13	=13	=13	=13	=13	=13	=13
1I	F:maj	when	.	.	30.439	newline	voice	1F 1a 1cc
.	.	I	.	.	.	.	.	.
.	.	_	.	.	.	.	.	.
.	.	a-	.	.	.	.	.	.
.	.	-wake	.	.	.	.	.	.
.	.	_	.	.	.	.	.	.
.	.	_	.	.	.	.	.	.
=14	=14	=14	=14	=14	=14	=14	=14	=14
.	.	_	.	.	.	.	.	.
1IVc	B-:maj/5	_	.	.	32.929	.	voice	1b- 1dd 1F
.	.	_	.	.	.	.	.	.
.	.	_	.	.	.	.	.	.
.	.	_	.	.	.	.	.	.
.	.	.	.	.	.	.	.	.
=15	=15	=15	=15	=15	=15	=15	=15	=15
1iii	A:min	I	.	.	35.419	.	voice	1A 1cc 1ee
.	.	want	.	.	.	.	.	.
.	.	to	.	.	.	.	.	.
.	.	_	.	.	.	.	.	.
.	.	hear	.	C	.	.	.	.
.	.	_	.	.	.	.	.	.
.	.	you	.	.	.	.	.	.
.	.	_	.	.	.	.	.	.
.	.	.	.	.	.	.	.	.
=16	=16	=16	=16	=16	=16	=16	=16	=16
1iii	A:min	fil-	.	.	37.909	.	voice	1A 1cc 1ee
.	.	-ling	.	.	.	.	.	.
.	.	my	.	.	.	.	.	.
.	.	life	.	.	.	.	.	.
.	.	with	.	.	.	.	.	.
.	.	cheer,	.	C	.	.	.	.
.	.	_	.	.	.	.	.	.
.	.	.	.	.	.	.	.	.
.	.	and	.	.	.	.	.	.
.	.	_	.	.	.	.	.	.
.	.	when	.	.	.	.	.	.
=17	=17	=17	=17	=17	=17	=17	=17	=17
.	.	_	.	.	.	.	.	.
1IV	B-:maj	_	.	.	40.399	.	voice	1B- 1dd 1ff
.	.	_	.	.	.	.	.	.
.	.	_	.	.	.	.	.	.
.	.	_	.	.	.	.	.	.
.	.	.	.	.	.	.	.	.
.	.	I	.	.	.	.	.	.
.	.	come	.	.	.	.	.	.
.	.	back	.	.	.	.	.	.
.	.	_	.	.	.	.	.	.
=18	=18	=18	=18	=18	=18	=18	=18	=18
1ii	G:min	_	.	.	42.889	.	voice	1G 1b- 1dd
.	.	.	.	.	.	.	.	.
.	.	.	.	.	.	.	.	.
=19	=19	=19	=19	=19	=19	=19	=19	=19
.	.	_	.	.	.	.	.	.
1III7	A:7	you	.	.	45.379	.	voice	1A 1cc# 1ee 1gg
.	.	_	.	.	.	.	.	.
.	.	won't	.	.	.	.	.	.
.	.	_	.	.	.	.	.	.
.	.	be	.	.	.	.	.	.
.	.	a-	.	.	.	.	.	.
.	.	-lone,	.	D	.	.	.	.
.	.	_	.	.	.	.	.	.
.	.	.	.	.	.	.	.	.
.	.	cuz	.	.	.	.	.	.
=20	=20	=20	=20	=20	=20	=20	=20	=20
1III7	A:7	I'll	.	.	47.868	.	voice	1A 1cc# 1ee 1gg
.	.	be	.	.	.	.	.	.
.	.	at	.	.	.	.	.	.
.	.	home,	.	D	.	.	.	.
.	.	_	.	.	.	.	.	.
.	.	_	.	.	.	.	.	.
.	.	say!	.	.	.	.	.	.
=21	=21	=21	=21	=21	=21	=21	=21	=21
*>Letter>C	*>Letter>C	*>Letter>C	*>Letter>C	*>Letter>C	*>Letter>C	*>Letter>C	*>Letter>C	*>Letter>C
*>Label>Chorus	*>Label>Chorus	*>Label>Chorus	*>Label>Chorus	*>Label>Chorus	*>Label>Chorus	*>Label>Chorus	*>Label>Chorus	*>Label>Chorus
1I	F:maj	.	.	.	50.358	newline	voice	1F 1a 1cc
.	.	_	.	.	.	.	.	.
.	.	Oh	.	.	.	.	.	.
.	.	_	.	.	.	.	.	.
.	.	me,	.	.	.	.	.	.
.	.	_	.	.	.	.	.	.
.	.	oh	.	.	.	.	.	.
.	.	_	.	.	.	.	.	.
.	.	my!	.	.	.	.	.	.
=22	=22	=22	=22	=22	=22	=22	=22	=22
.	.	_	.	.	.	.	.	.
1VI7	D:7	_	.	.	52.833	.	voice	1D 1f# 1a 1cc
.	.	_	.	.	.	.	.	.
.	.	_	.	.	.	.	.	.
.	.	_	.	.	.	.	.	.
.	.	.	.	.	.	.	.	.
=23	=23	=23	=23	=23	=23	=23	=23	=23
1IV	B-:maj	Dreams	.	.	55.308	.	voice	1B- 1dd 1ff
.	.	in	.	.	.	.	.	.
.	.	my	.	.	.	.	.	.
.	.	arms.	.	E	.	.	.	.
.	.	_	.	.	.	.	.	.
.	.	.	.	.	.	.	.	.
=24	=24	=24	=24	=24	=24	=24	=24	=24
1-VIIm7	E-:9	glad	.	.	57.782	.	voice	1E- 1g 1b- 1dd
.	.	you	.	.	.	.	.	.
.	.	at	.	.	.	.	.	.
.	.	home	.	E	.	.	.	.
.	.	_	.	.	.	.	.	.
.	.	_	.	.	.	.	.	.
.	.	with	.	.	.	.	.	.
.	.	_	.	.	.	.	.	.
.	.	me	.	.	.	.	.	.
=25	=25	=25	=25	=25	=25	=25	=25	=25
.	.	_	.	.	.	.	.	.
1VII7	E:7	_	.	.	60.257	.	voice	1E 1g# 1b 1dd
.	.	_	.	.	.	.	.	.
.	.	_	.	.	.	.	.	.
.	.	_	.	.	.	.	.	.
.	.	_	.	.	.	.	.	.
.	.	.	.	.	.	.	.	.
=26	=26	=26	=26	=26	=26	=26	=26	=26
1VII7	E:7	.	.	.	62.732	.	voice	1E 1g# 1b 1dd
.	.	.	.	.	.	.	.	.
.	.	I'm	.	.	.	.	.	.
.	.	so	.	.	.	.	.	.
.	.	_	.	.	.	.	.	.
.	.	glad	.	.	.	.	.	.
=27	=27	=27	=27	=27	=27	=27	=27	=27
1-iii	A-:min	_	.	.	65.206	.	voice	1A- 1cc- 1ee-
.	.	_	.	.	.	.	.	.
.	.	_	.	.	.	.	.	.
.	.	_	.	.	.	.	.	.
.	.	_	.	.	.	.	.	.
.	.	.	.	.	.	.	.	.
.	.	.	.	.	.	.	.	.
.	.	It	.	.	.	.	.	.
.	.	was	.	.	.	.	.	.
.	.	on	.	.	.	.	.	.
=28	=28	=28	=28	=28	=28	=28	=28	=28
1-VIm7	D-:7	_	.	.	67.681	.	voice	1D- 1f 1a- 1cc
.	.	ly	.	.	.	.	.	.
.	.	a	.	.	.	.	.	.
.	.	dream	.	.	.	.	.	.
.	.	.	.	.	.	.	.	.
.	.	.	.	.	.	.	.	.
.	.	Ha	.	.	.	.	.	.
=29	=29	=29	=29	=29	=29	=29	=29	=29
1V7	C:7(11)	_	.	.	70.156	.	voice	1C 1e 1g 1b-
=30	=30	=30	=30	=30	=30	=30	=30	=30
1V7	C:7(11)	_	.	.	72.63	.	voice	1C 1e 1g 1b-
.	.	.	.	.	.	.	.	.
.	.	(vocalizing)	.	.	.	.	.	.
.	.	_	.	.	.	.	.	.
.	.	say!	.	.	.	.	.	.
=31	=31	=31	=31	=31	=31	=31	=31	=31
*>Letter>D	*>Letter>D	*>Letter>D	*>Letter>D	*>Letter>D	*>Letter>D	*>Letter>D	*>Letter>D	*>Letter>D
*>Label>Instrumental	*>Label>Instrumental	*>Label>Instrumental	*>Label>Instrumental	*>Label>Instrumental	*>Label>Instrumental	*>Label>Instrumental	*>Label>Instrumental	*>Label>Instrumental
1I	F:maj	.	.	.	75.105	newline	horns	1F 1a 1cc
=32	=32	=32	=32	=32	=32	=32	=32	=32
1ii	G:min	.	.	.	77.576	.	horns	1G 1b- 1dd
=33	=33	=33	=33	=33	=33	=33	=33	=33
1iii	A:min	.	.	.	80.046	.	horns	1A 1cc 1ee
=34	=34	=34	=34	=34	=34	=34	=34	=34
1IV	B-:maj	.	.	.	82.517	.	horns	1B- 1dd 1ff
=35	=35	=35	=35	=35	=35	=35	=35	=35
1iii	A:min	.	.	.	84.988	.	horns	1A 1cc 1ee
.	.	.	Ooh!	.	.	.	.	.
.	.	.	_	.	.	.	.	.
.	.	.	_	.	.	.	.	.
=36	=36	=36	=36	=36	=36	=36	=36	=36
1-iiio	A-:dim	.	_	.	87.459	.	horns	1A- 1cc- 1ee--
=37	=37	=37	=37	=37	=37	=37	=37	=37
1ii	G:min	.	.	.	89.929	.	horns	1G 1b- 1dd
=38	=38	=38	=38	=38	=38	=38	=38	=38
1V7	C:7	.	.	.	92.4	.	horns	1C 1e 1g 1b-
=39	=39	=39	=39	=39	=39	=39	=39	=39
*>Letter>C	*>Letter>C	*>Letter>C	*>Letter>C	*>Letter>C	*>Letter>C	*>Letter>C	*>Letter>C	*>Letter>C
*>Label>Chorus	*>Label>Chorus	*>Label>Chorus	*>Label>Chorus	*>Label>Chorus	*>Label>Chorus	*>Label>Chorus	*>Label>Chorus	*>Label>Chorus
1I	F:maj	.	.	.	94.871	newline	voice	1F 1a 1cc
.	.	_	_	.	.	.	.	.
.	.	Oh	Oh	.	.	.	.	.
.	.	_	_	.	.	.	.	.
.	.	me,	me,	.	.	.	.	.
.	.	_	_	.	.	.	.	.
.	.	oh	oh	.	.	.	.	.
.	.	_	_	.	.	.	.	.
.	.	my!	my!	.	.	.	.	.
=40	=40	=40	=40	=40	=40	=40	=40	=40
.	.	_	_	.	.	.	.	.
1VI7	D:7	_	_	.	97.345	.	voice	1D 1f# 1a 1cc
.	.	_	.	.	.	.	.	.
.	.	_	.	.	.	.	.	.
.	.	.	.	.	.	.	.	.
=41	=41	=41	=41	=41	=41	=41	=41	=41
1IV	B-:maj	Dreams	.	.	99.819	.	voice	1B- 1dd 1ff
.	.	in	.	.	.	.	.	.
.	.	my	.	.	.	.	.	.
.	.	arms.	.	F	.	.	.	.
.	.	_	.	.	.	.	.	.
.	.	.	.	.	.	.	.	.
=42	=42	=42	=42	=42	=42	=42	=42	=42
1-VIIm7	E-:9	All	.	.	102.293	.	voice	1E- 1g 1b- 1dd
.	.	I	.	.	.	.	.	.
.	.	have	.	.	.	.	.	.
.	.	to	.	.	.	.	.	.
.	.	hold	.	.	.	.	.	.
.	.	_	.	.	.	.	.	.
.	.	since	.	.	.	.	.	.
.	.	_	.	.	.	.	.	.
.	.	you've	.	.	.	.	.	.
.	.	_	.	.	.	.	.	.
.	.	been	.	.	.	.	.	.
=43	=43	=43	=43	=43	=43	=43	=43	=43
.	.	_	.	.	.	.	.	.
1VII7	E:7	gone.	.	F	104.767	.	voice	1E 1g# 1b 1dd
.	.	_	.	.	.	.	.	.
.	.	_	.	.	.	.	.	.
.	.	_	.	.	.	.	.	.
.	.	.	.	.	.	.	.	.
.	.	.	.	.	.	.	.	.
.	.	I	.	.	.	.	.	.
=44	=44	=44	=44	=44	=44	=44	=44	=44
1VII7	E:7	got	.	.	107.241	.	voice	1E 1g# 1b 1dd
.	.	through.	.	G	.	.	.	.
.	.	_	.	.	.	.	.	.
.	.	_	.	.	.	.	.	.
.	.	.	.	.	.	.	.	.
.	.	.	.	.	.	.	.	.
.	.	.	.	.	.	.	.	.
.	.	May-	.	.	.	.	.	.
.	.	-be	.	.	.	.	.	.
.	.	I	.	.	.	.	.	.
=45	=45	=45	=45	=45	=45	=45	=45	=45
1-iiim7	A-:min7	_	.	.	109.715	.	voice	1A- 1cc- 1ee- 1gg
.	.	can	.	.	.	.	.	.
.	.	_	.	.	.	.	.	.
.	.	be	.	.	.	.	.	.
.	.	.	.	.	.	.	.	.
.	.	.	.	.	.	.	.	.
.	.	some	.	.	.	.	.	.
.	.	help	.	.	.	.	.	.
=46	=46	=46	=46	=46	=46	=46	=46	=46
1-VIm7	D-:7	_	.	.	112.19	.	voice	1D- 1f 1a- 1cc
.	.	to	.	.	.	.	.	.
.	.	_	.	.	.	.	.	.
.	.	you.	.	G	.	.	.	.
.	.	.	.	.	.	.	.	.
.	.	.	.	.	.	.	.	.
.	.	.	.	.	.	.	.	.
.	.	Hey	.	.	.	.	.	.
=47	=47	=47	=47	=47	=47	=47	=47	=47
1V7	C:7(11)	_	.	.	114.664	.	voice	1C 1e 1g 1b-
.	.	_	.	.	.	.	.	.
.	.	_	.	.	.	.	.	.
.	.	_	.	.	.	.	.	.
.	.	.	.	.	.	.	.	.
.	.	.	.	.	.	.	.	.
.	.	Help	.	.	.	.	.	.
=48	=48	=48	=48	=48	=48	=48	=48	=48
1V7	C:7(11)	_	.	.	117.138	.	voice	1C 1e 1g 1b-
.	.	me	.	.	.	.	.	.
.	.	to	.	G	.	.	.	.
.	.	.	.	.	.	.	.	.
.	.	a-	.	.	.	.	.	.
.	.	-help	.	.	.	.	.	.
.	.	me	.	.	.	.	.	.
.	.	say!	.	.	.	.	.	.
=49	=49	=49	=49	=49	=49	=49	=49	=49
*>Letter>C2	*>Letter>C2	*>Letter>C2	*>Letter>C2	*>Letter>C2	*>Letter>C2	*>Letter>C2	*>Letter>C2	*>Letter>C2
*>Label>Outro	*>Label>Outro	*>Label>Outro	*>Label>Outro	*>Label>Outro	*>Label>Outro	*>Label>Outro	*>Label>Outro	*>Label>Outro
1I	F:maj	.	.	.	119.612	newline	horns	1F 1a 1cc
.	.	_	_	.	.	.	.	.
.	.	Oh	Oh	.	.	.	.	.
.	.	_	_	.	.	.	.	.
.	.	me,	me,	.	.	.	.	.
.	.	_	_	.	.	.	.	.
.	.	oh	oh	.	.	.	.	.
.	.	_	_	.	.	.	.	.
.	.	my	my	.	.	.	.	.
=50	=50	=50	=50	=50	=50	=50	=50	=50
.	.	_	_	.	.	.	.	.
1VI7	D:7	_	_	.	122.09	.	horns	1D 1f# 1a 1cc
.	.	_	.	.	.	.	.	.
.	.	_	.	.	.	.	.	.
.	.	.	.	.	.	.	.	.
.	.	.	.	.	.	.	.	.
=51	=51	=51	=51	=51	=51	=51	=51	=51
1IV	B-:maj	Dreams	.	.	124.567	.	horns	1B- 1dd 1ff
.	.	in	.	.	.	.	.	.
.	.	my	.	.	.	.	.	.
.	.	arms	.	H	.	.	.	.
.	.	_	.	.	.	.	.	.
.	.	.	.	.	.	.	.	.
.	.	E-	.	.	.	.	.	.
.	.	-ver	.	.	.	.	.	.
=52	=52	=52	=52	=52	=52	=52	=52	=52
1-VIIm7	E-:9	since	.	.	127.045	.	horns	1E- 1g 1b- 1dd
.	.	you	.	.	.	.	.	.
.	.	been	.	.	.	.	.	.
.	.	gone	.	H	.	.	.	.
.	.	_	.	.	.	.	.	.
.	.	is	.	.	.	.	.	.
.	.	_	.	.	.	.	.	.
.	.	all	.	.	.	.	.	.
.	.	_	.	.	.	.	.	.
.	.	I.	.	.	.	.	.	.
=53	=53	=53	=53	=53	=53	=53	=53	=53
1VII7	E:7	.	.	.	129.523	.	horns	1E 1g# 1b 1dd
.	.	.	.	.	.	.	.	.
.	.	I'm	.	.	.	.	.	.
.	.	glad	.	.	.	.	.	.
.	.	it's	.	.	.	.	.	.
.	.	on	.	.	.	.	.	.
.	.	_	.	.	.	.	.	.
.	.	ly	.	.	.	.	.	.
.	.	a	.	.	.	.	.	.
.	.	dream.	.	I	.	.	.	.
=54	=54	=54	=54	=54	=54	=54	=54	=54
1VII7	E:7	_	.	.	132.001	.	horns	1E 1g# 1b 1dd
.	.	_	.	.	.	.	.	.
.	.	_	.	.	.	.	.	.
.	.	.	.	.	.	.	.	.
.	.	Lem-	.	.	.	.	.	.
.	.	-me	.	.	.	.	.	.
.	.	say	.	.	.	.	.	.
.	.	one	.	.	.	.	.	.
.	.	thing!	.	I	.	.	.	.
=55	=55	=55	=55	=55	=55	=55	=55	=55
1I	F:maj	Hey	.	.	134.478	newline	horns	1F 1a 1cc
.	.	.	_	.	.	.	.	.
.	.	.	Oh	.	.	.	.	.
.	.	.	_	.	.	.	.	.
.	.	Oh	me,	.	.	.	.	.
.	.	me	_	.	.	.	.	.
.	.	.	.	.	.	.	.	.
.	.	oh	oh	.	.	.	.	.
.	.	_	_	.	.	.	.	.
.	.	my!	my	.	.	.	.	.
=56	=56	=56	=56	=56	=56	=56	=56	=56
.	.	_	_	.	.	.	.	.
1VI7	D:7	_	_	.	136.959	.	horns	1D 1f# 1a 1cc
.	.	_	.	.	.	.	.	.
.	.	_	_	.	.	.	.	.
.	.	.	.	.	.	.	.	.
.	.	.	.	.	.	.	.	.
=57	=57	=57	=57	=57	=57	=57	=57	=57
1IV	B-:maj	Dreams	.	.	139.44	.	horns	1B- 1dd 1ff
.	.	in	.	.	.	.	.	.
.	.	my	.	.	.	.	.	.
.	.	arms	.	J	.	.	.	.
.	.	_	.	.	.	.	.	.
.	.	.	.	.	.	.	.	.
.	.	is	.	.	.	.	.	.
=58	=58	=58	=58	=58	=58	=58	=58	=58
1-VIIm7	E-:9	all	.	.	141.92	.	horns	1E- 1g 1b- 1dd
.	.	I	.	.	.	.	.	.
.	.	have	.	.	.	.	.	.
.	.	to	.	.	.	.	.	.
.	.	hold	.	.	.	.	.	.
.	.	_	.	.	.	.	.	.
.	.	since	.	.	.	.	.	.
.	.	_	.	.	.	.	.	.
.	.	you've	.	.	.	.	.	.
.	.	_	.	.	.	.	.	.
.	.	been	.	.	.	.	.	.
=59	=59	=59	=59	=59	=59	=59	=59	=59
.	.	_	.	.	.	.	.	.
1VII7	E:7	gone.	.	J	144.401	.	horns	1E 1g# 1b 1dd
.	.	_	.	.	.	.	.	.
.	.	.	.	.	.	.	.	.
.	.	Come	.	.	.	.	.	.
.	.	on	.	.	.	.	.	.
.	.	back	.	.	.	.	.	.
.	.	_	.	.	.	.	.	.
.	.	home.	.	J	.	.	.	.
=60	=60	=60	=60	=60	=60	=60	=60	=60
1V7	C:7	.	.	.	146.882	.	horns	1C 1e 1g 1b-
.	.	Some-	.	.	.	.	.	.
.	.	-time	.	.	.	.	.	.
.	.	_	.	.	.	.	.	.
.	.	I	.	.	.	.	.	.
.	.	_	.	.	.	.	.	.
.	.	dream	.	.	.	.	.	.
.	.	_	.	.	.	.	.	.
.	.	a-	.	.	.	.	.	.
.	.	-bout	.	.	.	.	.	.
.	.	you,	.	.	.	.	.	.
.	.	ba-	.	.	.	.	.	.
.	.	-by!	.	.	.	.	.	.
=61	=61	=61	=61	=61	=61	=61	=61	=61
1I	F:maj	.	.	.	149.362	newline	horns voice fadeout	1F 1a 1cc
.	.	_	_	.	.	.	.	.
.	.	Oh	Oh	.	.	.	.	.
.	.	_	_	.	.	.	.	.
.	.	me,	me,	.	.	.	.	.
.	.	_	_	.	.	.	.	.
.	.	oh	oh	.	.	.	.	.
.	.	_	_	.	.	.	.	.
.	.	my	my	.	.	.	.	.
=62	=62	=62	=62	=62	=62	=62	=62	=62
.	.	.	_	.	.	.	.	.
1VI7	D:7	_	_	.	151.629	.	horns voice fadeout	1D 1f# 1a 1cc
.	.	_	.	.	.	.	.	.
.	.	_	.	.	.	.	.	.
.	.	.	.	.	.	.	.	.
=63	=63	=63	=63	=63	=63	=63	=63	=63
1IV	B-:maj	Dreams	.	.	153.895	.	horns voice fadeout	1B- 1dd 1ff
.	.	in	.	.	.	.	.	.
.	.	my	.	.	.	.	.	.
.	.	arms	.	K	.	.	.	.
.	.	_	.	.	.	.	.	.
.	.	.	.	.	.	.	.	.
.	.	E	.	.	.	.	.	.
=64	=64	=64	=64	=64	=64	=64	=64	=64
1-VIIm7	E-:9	_	.	.	156.161	.	horns voice fadeout	1E- 1g 1b- 1dd
.	.	ver	.	.	.	.	.	.
.	.	since	.	.	.	.	.	.
.	.	you	.	.	.	.	.	.
.	.	been	.	.	.	.	.	.
.	.	gone.	.	K	.	.	.	.
.	.	_	.	.	.	.	.	.
.	.	.	.	.	.	.	.	.
.	.	_	.	.	.	.	.	.
.	.	For	.	.	.	.	.	.
.	.	_	.	.	.	.	.	.
.	.	me.	.	.	.	.	.	.
=65	=65	=65	=65	=65	=65	=65	=65	=65
.	.	_	.	.	.	.	.	.
1VII7	E:7	_	.	.	158.427	.	horns voice fadeout	1E 1g# 1b 1dd
.	.	.	.	.	.	.	.	.
.	.	.	.	.	.	.	.	.
.	.	All	.	.	.	.	.	.
.	.	I	.	.	.	.	.	.
.	.	have	.	.	.	.	.	.
.	.	_	.	.	.	.	.	.
.	.	to	.	.	.	.	.	.
.	.	do	.	.	.	.	.	.
=66	=66	=66	=66	=66	=66	=66	=66	=66
1V7	C:7	_	.	.	160.694	.	horns voice fadeout	1C 1e 1g 1b-
.	.	is	.	.	.	.	.	.
.	.	dream	.	.	.	.	.	.
.	.	_	.	.	.	.	.	.
.	.	a-	.	.	.	.	.	.
.	.	-bout	.	.	.	.	.	.
.	.	_	.	.	.	.	.	.
.	.	you.	.	.	.	.	.	.
.	.	.	.	.	.	.	.	.
.	.	_	.	.	.	.	.	.
.	.	hey!	.	.	.	.	.	.
.	.	.	.	.	.	.	.	.
1r;	N	.	.	.	162.96	.	r	1r;
1r;	N	.	.	.	166.643	.	r	1r;
*-	*-	*-	*-	*-	*-	*-	*-	*-
!!!BillboardChartDate: 1975/07/19
!!!BillboardPeak: 48
!!!BillboardWeeksOnChart: 6
!!!COC: Al Green
!!!ENC: Nathaniel Condit-Schultz
!!!EST: Awating manual error checking and editing.
!!!OTL: Oh Me, Oh My (Dreams In My Arms)
!!!RDF**harte: Chris Harte's syntax, used by MIREX
!!!RDF**harmony: **recip + pitch class of root + harmonic quality
!!!RDF**leadinstrument: original McGill primary instrumentation annotation
!!!RDF**phrase: newline = linebreak in original McGill transcription
!!!RDF**timestamp: McGill audio timestamp in seconds
!!!RDT: 2017/01/12/
!!!SampleActualRank: 59
!!!SampleID#: 0573
!!!SampleTargetRank: 59
!!!MBID: 86f07300-239d-429b-a875-d06ef5203fd0
